inst/assets/svg/wi-rain-mix.svg

<?xml version="1.0" encoding="UTF-8"?>
<svg xmlns="http://www.w3.org/2000/svg" xmlns:xlink="http://www.w3.org/1999/xlink" width="30pt" height="30pt" viewBox="0 0 30 30" version="1.1">
<g id="surface801">
<path style=" stroke:none;fill-rule:nonzero;fill:rgb(0%,0%,0%);fill-opacity:1;" d="M 4.648438 16.960938 C 4.648438 18.28125 5.121094 19.421875 6.050781 20.371094 C 6.980469 21.328125 8.109375 21.828125 9.429688 21.871094 C 9.550781 21.871094 9.609375 21.808594 9.609375 21.699219 L 9.609375 20.371094 C 9.609375 20.25 9.550781 20.191406 9.429688 20.191406 C 8.589844 20.148438 7.859375 19.808594 7.261719 19.171875 C 6.660156 18.53125 6.351563 17.800781 6.351563 16.949219 C 6.351563 16.109375 6.628906 15.378906 7.199219 14.761719 C 7.769531 14.140625 8.460938 13.789063 9.300781 13.71875 L 9.828125 13.648438 C 9.949219 13.648438 10.019531 13.589844 10.019531 13.46875 L 10.089844 12.96875 C 10.191406 11.878906 10.640625 10.960938 11.449219 10.21875 C 12.261719 9.480469 13.210938 9.109375 14.308594 9.109375 C 15.390625 9.109375 16.339844 9.480469 17.148438 10.210938 C 17.960938 10.941406 18.429688 11.839844 18.550781 12.921875 L 18.621094 13.5 C 18.621094 13.621094 18.679688 13.679688 18.808594 13.679688 L 20.410156 13.679688 C 21.308594 13.679688 22.078125 14 22.730469 14.648438 C 23.371094 15.289063 23.699219 16.058594 23.699219 16.949219 C 23.699219 17.789063 23.398438 18.53125 22.800781 19.171875 C 22.199219 19.800781 21.46875 20.140625 20.621094 20.191406 C 20.488281 20.191406 20.421875 20.25 20.421875 20.371094 L 20.421875 21.699219 C 20.421875 21.808594 20.488281 21.871094 20.621094 21.871094 C 21.949219 21.828125 23.078125 21.328125 24 20.371094 C 24.921875 19.410156 25.378906 18.28125 25.378906 16.949219 C 25.378906 16.058594 25.160156 15.230469 24.710938 14.46875 C 24.269531 13.710938 23.660156 13.109375 22.898438 12.671875 C 22.140625 12.230469 21.308594 12.011719 20.421875 12.011719 L 20.109375 12.011719 C 19.78125 10.671875 19.078125 9.578125 18 8.71875 C 16.929688 7.871094 15.699219 7.441406 14.320313 7.441406 C 12.910156 7.441406 11.660156 7.878906 10.570313 8.75 C 9.480469 9.621094 8.78125 10.738281 8.46875 12.101563 C 7.339844 12.390625 6.429688 12.980469 5.71875 13.871094 C 5.011719 14.761719 4.648438 15.800781 4.648438 16.960938 Z M 10.050781 23.980469 C 10.050781 24.148438 10.101563 24.320313 10.210938 24.488281 C 10.320313 24.660156 10.480469 24.769531 10.679688 24.839844 C 10.910156 24.910156 11.121094 24.898438 11.320313 24.800781 C 11.511719 24.710938 11.648438 24.519531 11.710938 24.238281 L 11.851563 23.628906 C 11.898438 23.398438 11.871094 23.191406 11.761719 23 C 11.648438 22.808594 11.480469 22.671875 11.238281 22.601563 C 11.019531 22.53125 10.800781 22.558594 10.601563 22.679688 C 10.398438 22.800781 10.261719 22.980469 10.199219 23.210938 L 10.058594 23.800781 C 10.058594 23.828125 10.050781 23.890625 10.050781 23.980469 Z M 10.808594 21.078125 C 10.808594 21.289063 10.890625 21.480469 11.058594 21.648438 C 11.21875 21.820313 11.398438 21.898438 11.621094 21.898438 C 11.859375 21.898438 12.058594 21.820313 12.21875 21.660156 C 12.378906 21.5 12.460938 21.308594 12.460938 21.070313 C 12.460938 20.839844 12.378906 20.640625 12.21875 20.480469 C 12.058594 20.320313 11.859375 20.238281 11.621094 20.238281 C 11.390625 20.238281 11.199219 20.320313 11.039063 20.46875 C 10.890625 20.648438 10.808594 20.851563 10.808594 21.078125 Z M 11.421875 18.808594 C 11.410156 18.96875 11.449219 19.121094 11.558594 19.261719 C 11.660156 19.410156 11.820313 19.511719 12.039063 19.578125 C 12.25 19.640625 12.449219 19.621094 12.660156 19.511719 C 12.871094 19.398438 13 19.230469 13.070313 19 L 13.351563 18.101563 C 13.421875 17.859375 13.398438 17.640625 13.28125 17.449219 C 13.160156 17.261719 12.980469 17.128906 12.738281 17.058594 C 12.519531 16.988281 12.308594 17.011719 12.109375 17.128906 C 11.910156 17.238281 11.769531 17.410156 11.699219 17.628906 L 11.460938 18.550781 C 11.460938 18.570313 11.449219 18.609375 11.441406 18.671875 C 11.429688 18.71875 11.421875 18.769531 11.421875 18.808594 Z M 12.589844 27.101563 C 12.589844 27.28125 12.640625 27.441406 12.738281 27.601563 C 12.839844 27.761719 13 27.871094 13.21875 27.929688 C 13.300781 27.949219 13.390625 27.960938 13.46875 27.960938 C 13.898438 27.960938 14.160156 27.761719 14.261719 27.351563 L 14.398438 26.761719 C 14.460938 26.5 14.429688 26.28125 14.320313 26.078125 C 14.199219 25.878906 14.03125 25.761719 13.800781 25.710938 C 13.589844 25.640625 13.378906 25.660156 13.171875 25.78125 C 12.960938 25.898438 12.828125 26.070313 12.761719 26.289063 L 12.621094 26.878906 C 12.601563 26.96875 12.589844 27.039063 12.589844 27.101563 Z M 13.359375 24.199219 C 13.359375 24.421875 13.441406 24.609375 13.609375 24.78125 C 13.769531 24.941406 13.960938 25.019531 14.179688 25.019531 C 14.421875 25.019531 14.609375 24.941406 14.769531 24.789063 C 14.929688 24.628906 15 24.441406 15 24.199219 C 15 23.96875 14.921875 23.78125 14.769531 23.621094 C 14.609375 23.460938 14.421875 23.390625 14.179688 23.390625 C 13.941406 23.390625 13.75 23.46875 13.589844 23.621094 C 13.429688 23.769531 13.359375 23.96875 13.359375 24.199219 Z M 13.988281 21.929688 C 13.980469 22.078125 14.019531 22.238281 14.121094 22.398438 C 14.21875 22.558594 14.371094 22.660156 14.570313 22.699219 C 14.800781 22.761719 15.011719 22.738281 15.210938 22.640625 C 15.410156 22.539063 15.539063 22.351563 15.621094 22.078125 L 15.890625 21.179688 C 15.960938 20.960938 15.941406 20.75 15.820313 20.550781 C 15.699219 20.351563 15.53125 20.21875 15.289063 20.148438 C 15.070313 20.078125 14.859375 20.109375 14.648438 20.230469 C 14.441406 20.351563 14.308594 20.53125 14.238281 20.761719 L 14.011719 21.660156 C 14 21.738281 13.988281 21.828125 13.988281 21.929688 Z M 16.75 24.078125 C 16.75 24.238281 16.800781 24.398438 16.898438 24.558594 C 17 24.71875 17.160156 24.828125 17.359375 24.890625 C 17.390625 24.890625 17.441406 24.898438 17.5 24.910156 C 17.558594 24.921875 17.601563 24.929688 17.640625 24.929688 C 18.050781 24.929688 18.300781 24.710938 18.398438 24.269531 L 18.539063 23.671875 C 18.609375 23.460938 18.589844 23.25 18.46875 23.039063 C 18.359375 22.828125 18.191406 22.699219 17.960938 22.628906 C 17.710938 22.570313 17.480469 22.589844 17.28125 22.710938 C 17.078125 22.828125 16.941406 23 16.871094 23.238281 L 16.78125 23.828125 C 16.78125 23.851563 16.769531 23.898438 16.761719 23.949219 C 16.75 24 16.75 24.039063 16.75 24.078125 Z M 17.488281 21.121094 C 17.488281 21.339844 17.570313 21.539063 17.738281 21.691406 C 17.890625 21.851563 18.078125 21.929688 18.308594 21.929688 C 18.550781 21.929688 18.738281 21.851563 18.898438 21.699219 C 19.058594 21.550781 19.128906 21.351563 19.128906 21.121094 C 19.128906 20.878906 19.050781 20.691406 18.898438 20.53125 C 18.75 20.371094 18.550781 20.300781 18.308594 20.300781 C 18.070313 20.300781 17.878906 20.378906 17.71875 20.53125 C 17.570313 20.691406 17.488281 20.878906 17.488281 21.121094 Z M 18.101563 18.808594 C 18.101563 18.980469 18.148438 19.140625 18.261719 19.289063 C 18.371094 19.441406 18.53125 19.550781 18.75 19.609375 C 18.769531 19.609375 18.808594 19.621094 18.871094 19.628906 C 18.929688 19.640625 18.980469 19.648438 19.011719 19.648438 C 19.109375 19.648438 19.230469 19.621094 19.371094 19.558594 C 19.578125 19.449219 19.71875 19.269531 19.78125 19.039063 L 20.019531 18.140625 C 20.078125 17.910156 20.058594 17.699219 19.941406 17.511719 C 19.828125 17.308594 19.660156 17.179688 19.429688 17.109375 C 19.199219 17.039063 18.988281 17.058594 18.789063 17.171875 C 18.601563 17.28125 18.460938 17.441406 18.398438 17.679688 L 18.121094 18.589844 C 18.121094 18.609375 18.109375 18.648438 18.101563 18.710938 C 18.101563 18.738281 18.101563 18.78125 18.101563 18.808594 Z M 18.101563 18.808594 "/>
</g>
</svg>

<?xml version="1.0" encoding="utf-8"?>
<!-- Generator: Adobe Illustrator 22.0.1, SVG Export Plug-In . SVG Version: 6.00 Build 0)  -->
<svg version="1.1" id="Layer_1" xmlns="http://www.w3.org/2000/svg" xmlns:xlink="http://www.w3.org/1999/xlink" x="0px" y="0px"
	 viewBox="0 0 30 30" style="enable-background:new 0 0 30 30;" xml:space="preserve">
<path d="M4.65,16.96c0,1.32,0.47,2.46,1.4,3.41c0.93,0.96,2.06,1.46,3.38,1.5c0.12,0,0.18-0.06,0.18-0.17v-1.33
	c0-0.12-0.06-0.18-0.18-0.18c-0.84-0.04-1.57-0.38-2.17-1.02s-0.91-1.37-0.91-2.22c0-0.84,0.28-1.57,0.85-2.19
	c0.57-0.62,1.26-0.97,2.1-1.04l0.53-0.07c0.12,0,0.19-0.06,0.19-0.18l0.07-0.5c0.1-1.09,0.55-2.01,1.36-2.75s1.76-1.11,2.86-1.11
	c1.08,0,2.03,0.37,2.84,1.1c0.81,0.73,1.28,1.63,1.4,2.71l0.07,0.58c0,0.12,0.06,0.18,0.19,0.18h1.6c0.9,0,1.67,0.32,2.32,0.97
	c0.64,0.64,0.97,1.41,0.97,2.3c0,0.84-0.3,1.58-0.9,2.22c-0.6,0.63-1.33,0.97-2.18,1.02c-0.13,0-0.2,0.06-0.2,0.18v1.33
	c0,0.11,0.07,0.17,0.2,0.17c1.33-0.04,2.46-0.54,3.38-1.5s1.38-2.09,1.38-3.42c0-0.89-0.22-1.72-0.67-2.48
	c-0.44-0.76-1.05-1.36-1.81-1.8c-0.76-0.44-1.59-0.66-2.48-0.66h-0.31c-0.33-1.34-1.03-2.43-2.11-3.29
	c-1.07-0.85-2.3-1.28-3.68-1.28c-1.41,0-2.66,0.44-3.75,1.31s-1.79,1.99-2.1,3.35c-1.13,0.29-2.04,0.88-2.75,1.77
	S4.65,15.8,4.65,16.96z M10.05,23.98c0,0.17,0.05,0.34,0.16,0.51c0.11,0.17,0.27,0.28,0.47,0.35c0.23,0.07,0.44,0.06,0.64-0.04
	c0.19-0.09,0.33-0.28,0.39-0.56l0.14-0.61c0.05-0.23,0.02-0.44-0.09-0.63s-0.28-0.33-0.52-0.4c-0.22-0.07-0.44-0.04-0.64,0.08
	s-0.34,0.3-0.4,0.53l-0.14,0.59C10.06,23.83,10.05,23.89,10.05,23.98z M10.81,21.08c0,0.21,0.08,0.4,0.25,0.57
	c0.16,0.17,0.34,0.25,0.56,0.25c0.24,0,0.44-0.08,0.6-0.24c0.16-0.16,0.24-0.35,0.24-0.59c0-0.23-0.08-0.43-0.24-0.59
	c-0.16-0.16-0.36-0.24-0.6-0.24c-0.23,0-0.42,0.08-0.58,0.23C10.89,20.65,10.81,20.85,10.81,21.08z M11.42,18.81
	c-0.01,0.16,0.03,0.31,0.14,0.45c0.1,0.15,0.26,0.25,0.48,0.32c0.21,0.06,0.41,0.04,0.62-0.07S13,19.23,13.07,19l0.28-0.9
	c0.07-0.24,0.05-0.46-0.07-0.65c-0.12-0.19-0.3-0.32-0.54-0.39c-0.22-0.07-0.43-0.05-0.63,0.07c-0.2,0.11-0.34,0.28-0.41,0.5
	l-0.24,0.92c0,0.02-0.01,0.06-0.02,0.12C11.43,18.72,11.42,18.77,11.42,18.81z M12.59,27.1c0,0.18,0.05,0.34,0.15,0.5
	c0.1,0.16,0.26,0.27,0.48,0.33c0.08,0.02,0.17,0.03,0.25,0.03c0.43,0,0.69-0.2,0.79-0.61l0.14-0.59c0.06-0.26,0.03-0.48-0.08-0.68
	c-0.12-0.2-0.29-0.32-0.52-0.37c-0.21-0.07-0.42-0.05-0.63,0.07c-0.21,0.12-0.34,0.29-0.41,0.51l-0.14,0.59
	C12.6,26.97,12.59,27.04,12.59,27.1z M13.36,24.2c0,0.22,0.08,0.41,0.25,0.58c0.16,0.16,0.35,0.24,0.57,0.24
	c0.24,0,0.43-0.08,0.59-0.23c0.16-0.16,0.23-0.35,0.23-0.59c0-0.23-0.08-0.42-0.23-0.58c-0.16-0.16-0.35-0.23-0.59-0.23
	c-0.24,0-0.43,0.08-0.59,0.23S13.36,23.97,13.36,24.2z M13.99,21.93c-0.01,0.15,0.03,0.31,0.13,0.47c0.1,0.16,0.25,0.26,0.45,0.3
	c0.23,0.06,0.44,0.04,0.64-0.06s0.33-0.29,0.41-0.56l0.27-0.9c0.07-0.22,0.05-0.43-0.07-0.63c-0.12-0.2-0.29-0.33-0.53-0.4
	c-0.22-0.07-0.43-0.04-0.64,0.08c-0.21,0.12-0.34,0.3-0.41,0.53l-0.23,0.9C14,21.74,13.99,21.83,13.99,21.93z M16.75,24.08
	c0,0.16,0.05,0.32,0.15,0.48c0.1,0.16,0.26,0.27,0.46,0.33c0.03,0,0.08,0.01,0.14,0.02c0.06,0.01,0.1,0.02,0.14,0.02
	c0.41,0,0.66-0.22,0.76-0.66l0.14-0.6c0.07-0.21,0.05-0.42-0.07-0.63c-0.11-0.21-0.28-0.34-0.51-0.41
	c-0.25-0.06-0.48-0.04-0.68,0.08s-0.34,0.29-0.41,0.53l-0.09,0.59c0,0.02-0.01,0.07-0.02,0.12S16.75,24.04,16.75,24.08z
	 M17.49,21.12c0,0.22,0.08,0.42,0.25,0.57c0.15,0.16,0.34,0.24,0.57,0.24c0.24,0,0.43-0.08,0.59-0.23s0.23-0.35,0.23-0.58
	c0-0.24-0.08-0.43-0.23-0.59s-0.35-0.23-0.59-0.23c-0.24,0-0.43,0.08-0.59,0.23C17.57,20.69,17.49,20.88,17.49,21.12z M18.1,18.81
	c0,0.17,0.05,0.33,0.16,0.48c0.11,0.15,0.27,0.26,0.49,0.32c0.02,0,0.06,0.01,0.12,0.02s0.11,0.02,0.14,0.02
	c0.1,0,0.22-0.03,0.36-0.09c0.21-0.11,0.35-0.29,0.41-0.52l0.24-0.9c0.06-0.23,0.04-0.44-0.08-0.63c-0.11-0.2-0.28-0.33-0.51-0.4
	c-0.23-0.07-0.44-0.05-0.64,0.06c-0.19,0.11-0.33,0.27-0.39,0.51l-0.28,0.91c0,0.02-0.01,0.06-0.02,0.12
	C18.1,18.74,18.1,18.78,18.1,18.81z"/>
</svg>
